X:2
T:Imperial March from Star Wars
T:Darth Vader Theme
R:misc
C:John Williams, USA
Z:id:hn-misc-2
M:4/4
L:1/8
Q:1/4=120
K:Bb
"Gm"G2 G2 G2 "Ebm"E>B | "Gm"G2 "Ebm"E>B "Gm"G4 | 
"Gm"d2 d2 d2 "Ebm"e>B | ^F2 E>B "Gm"G4 |
"Gm"g2 G>G g2 ^f>=f | "C#m"=e/^d/=e z ^G ^c2 =c>=B |
"Ebm"_B/A/B z E ^F2 E>F | "Gm"B2 G>B d4 |
"Eb"g2 G>G "Gm"g2 ^f>=f | "C#m"=e/^d/=e z ^G ^c2 =c>=B |
"Ebm"_B/A/B z E ^F2 E>B | "Gm"G2 "Ebm"E>B "Gm"G4 ||

